X: 9136
T: Dairy Maid, The
R: reel
M: 4/4
K: Dmajor
AF~F2 AFBF|AFDE FE~E2|AF~F2 BFAF|EADE FDD2|
AF~F2 AFBF|AFDE FEEF|~G3E F2AF|EADE FDD2||
~d3f ~a3g|f2ef dB~B2|dcdf a2fa|bgeg fddA|
dfaf g2ag|f2eg fBBA|GBdf gbag|faeg fedB||

